!!!!SEGMENT: pl-kk--kk-i-389--008-004_anonim--missa-no-8-graduale-alleluia-ave-maria.krn
!!!cenid: 17xx:2509
!!!COM: Anonim
!!!COM-rismID: pe30004985
!!!CDT:
!!!CNT:
!!!OPR: [Missa] No. 8.
!!!OTL: Graduale/Alleluia. Ave Maria
!!!OMV: 004
!!!PDT:
!!!AGN: Sacred; Mass
!!!YEC: Copyright 2022 Narodowy Instytut Fryderyka Chopina (https://polishscores.org)
!!!YEM: License CC-BY-4.0 (https://creativecommons.org/licenses/by/4.0)
!!!SMS-siglum: PL-Kk
!!!SMS-shelfmark: Kk.I.389
!!!SMS-variant:
!!!SMS-altvar:
!!!SMS-shelfwork: 008-004 M
!!!NIFC-rismSourceID: 1001146182
!!!NIFC-rismChildID: 1001147247
!!!NIFC-islandoraID: pl-kk:6976
!!!URL-pdf-islandora: https://repozytorium.nifc.pl/islandora/object/pl-kk%3A6976/datastream/PDF/view
!!!URL-scan: https://polish.musicsources.pl/pl/lokalizacje/galeria/rekopisy/5999/1 @EN{Scan on Polish Music Sources Website} @PL{Skany w portalu Dziedzictwo Muzyki Polskiej w otwartym dostępie}
!!!IIIF:
!!!ONB-nifc: UWAGA: S – skan 14-15 , A – 32-34, T – 51-53 , B – 70-71. Części Mszy: Rorate, Kyrie, Gloria, Graduale, Sanctus, Benedictus, Agnus, Dona.
!!!AIN: 1 alto 1 bass 1 soprn 1 tenor
!!!key: C
**kern	**text	**kern	**text	**kern	**text	**kern	**text
*part4	*part4	*part3	*part3	*part2	*part2	*part1	*part1
*staff4	*staff4	*staff3	*staff3	*staff2	*staff2	*staff1	*staff1
*I"Basso.	*	*I"Tenore.	*	*I"Alto.	*	*I"Soprano.	*
*I'B	*	*I'T	*	*I'A	*	*I'S	*
*ICvox	*	*ICvox	*	*ICvox	*	*ICvox	*
*Ibass	*	*Itenor	*	*Ialto	*	*Isoprn	*
*clefF4	*	*clefC4	*	*clefC3	*	*clefC1	*
*k[]	*	*k[]	*	*k[]	*	*k[]	*
*C:	*	*C:	*	*C:	*	*C:	*
*M3/2	*	*M3/2	*	*M3/2	*	*M3/2	*
=1	=1	=1	=1	=1	=1	=1	=1
*	*	*	*	*	*	*all\right:global	*
2r	.	2r	.	2r	.	2r	.
*	*	*2\right	*	*2\right	*	*2\right	*
!	!	!LO:TX:t=P:problem:2\right:global	!	!LO:TX:t=P:problem:2\right:global	!	!LO:TX:t=P:problem:2\right:global	!
2C/	Al-	2e\	Al-	2g\	al-	2cc\	Al-
*2\right	*	*	*	*	*	*	*
!LO:TX:t=P:problem:2\right:global	!	!	!	!	!	!	!
2c\	-le-	2e\	-le-	2g\	-le-	2cc\	-le-
=2	=2	=2	=2	=2	=2	=2	=2
2G\	-lu-	2d\	-lu-	2g\	-lu-	2b\	-lu-
2F\	-ia	2d\	-ia	2g\	-ia	2b\	-ia
2E\	al-	2e\	al-	2g\	al-	2cc\	Al-
=3	=3	=3	=3	=3	=3	=3	=3
1D	-le-	1f	-le-	1fn	-le-	1cc	-le-
2D\	-lu-	2d\	-lu-	2f\	-lu-	2b\	-lu-
=4	=4	=4	=4	=4	=4	=4	=4
1C	-ia	2G/	-a,	2e\	-ia,	1cc	-ia,
.	.	2A\	al-	2e\	al-	.	.
2D\	al-	2B\	.	2f\	.	4b\	Al-
.	.	.	.	.	.	4a\	.
=5	=5	=5	=5	=5	=5	=5	=5
2E\	.	2c\	-le-	2g\	-le-	2g\	-le-
1F#X	-le-	2.d\	.	2.f#X\	.	1a	-lu-
.	.	4c\	-lu-	4f#\	-lu-	.	.
!	!	!LO:LB:g=original	!	!	!	!	!
=6	=6	=6	=6	=6	=6	=6	=6
2G\	-lu-	2B\	-ia,	2d\	-ia	2b\	-ia
2D\	-ia	2A\	al-	2f#X\	al-	1dd	Al-
2E\	al-	2e\	.	2g\	.	.	.
!	!	!	!	!LO:LB:g=original	!	!	!
=7	=7	=7	=7	=7	=7	=7	=7
2C/	-le-	2e\	-le-	1g	-le-	4cc\	-le-
.	.	.	.	.	.	4b\	.
!LO:LB:g=original	!	!	!	!	!	!	!
2D\	.	1d	-lu-	.	.	1a	-lu-
2D\	-lu-	.	.	2f#X\	-lu-	.	.
!	!	!	!	!	!	!LO:LB:g=original	!
=8	=8	=8	=8	=8	=8	=8	=8
2GG/	-ia	2d\	-ia	2g\	-ia,	2b\	-ia,
4G\	al-	2d\	al-	2d\	al-	1b	Al-
4F\	.	.	.	.	.	.	.
2E\	-le-	2e\	.	2e\	.	.	.
=9	=9	=9	=9	=9	=9	=9	=9
2A\	-lu-	1e	-le-	2e\	-le-	2cc\	-le-
2E\	-ia	.	.	2g#X\	.	2ee\	.
2F\	al-	2c\	.	2a\	.	2cc\	.
=10	=10	=10	=10	=10	=10	=10	=10
2D\	-le-	2f\	-lu-	1a	.	2b\	.
2.E\	.	1e	-ia	.	.	1b	-lu-
.	.	.	.	2g#X\	-lu-	.	.
4E\	-lu-	.	.	.	.	.	.
=11	=11	=11	=11	=11	=11	=11	=11
2AA/	-ia	2e\	al-	2a\	-ia,	2cc\	-ia
2E\	al-	2c\	.	2gn\	al-	1cc	Al-
2F\	.	2B\	.	2f\	.	.	.
=12	=12	=12	=12	=12	=12	=12	=12
2C/	-le-	2G/	-le-	2e\	-le-	1cc	-le-
2G\	.	1G	-lu-	1d	-lu-	.	.
2GG/	-lu-	.	.	.	.	2b\	-lu-
=13	=13	=13	=13	=13	=13	=13	=13
!LO:TX:t=P:problem:pojedyncza kreska taktowa	!	!LO:TX:t=P:problem:LO:N:vis=1	!	!	!	!	!
1.C	-ia	1.G;	-ia.	1.e	-ia,	1.cc	-ia,
=14||	=14||	=14||	=14||	=14||	=14||	=14||	=14||
!LO:TX:a:t=2	!	!LO:TX:a:t=3.	!	!	!	!LO:TX:a:t=1.	!
0.r	.	0.r	.	2g\	a-	1.r	.
.	.	.	.	2g\	-ve	.	.
.	.	.	.	2g\	ma-	.	.
!	!	!	!	!LO:LB:g=original	!	!	!
=15-	=15	=15-	=15	=15	=15	=15	=15
.	.	.	.	2.e\	-ri-	2cc\	A-
.	.	.	.	.	.	2cc\	-ve
.	.	.	.	4d\	.	.	.
.	.	.	.	2c\	-a	2cc\	Ma-
=16	=16	=16-	=16	=16	=16	=16	=16
2G\	a-	1.r	.	2d\	gra-	2.b\	-ri-
2G\	-ve	.	.	2d\	-ti-	.	.
.	.	.	.	.	.	4a\	.
2G\	ma-	.	.	2d\	-a	2g\	-a
!LO:LB:g=original	!	!LO:PB:g=original	!	!	!	!LO:LB:g=original	!
=17	=17	=17	=17	=17	=17	=17	=17
2.E\	-ri-	2c\	A-	2.e\	gra-	2g\	gra-
.	.	2c\	-ve	.	.	4a\	.
4D\	.	.	.	4f\	-ti-	4b\	-ti-
2C/	-a	2c\	ma-	2g\	-a	2cc\	-a,
=18	=18	=18	=18	=18	=18	=18	=18
2.BB/	gra-	2.B\	-ri-	2.g\	gra-	2.dd\	gra-
4BB/	-ti-	4A\	-a,	4g\	-ti-	4dd\	-ti-
2C/	-a	4G/	gra-	2g\	-a	2a\	-a
.	.	4G/	-ti-	.	.	.	.
=19	=19	=19	=19	=19	=19	=19	=19
1D	ple-	2B-X\	-a,	1fn	ple-	1dd	ple-
.	.	4B-\	ple-	.	.	.	.
.	.	4d\	.	.	.	.	.
2E\	-na	4c\	-na	2e\	-na	2g\	-na
.	.	4B-\	.	.	.	.	.
=20	=20	=20	=20	=20	=20	=20	=20
2.F\	Do-	2.A\	Do-	2.a\	Do-	2.cc\	Do-
4G\	-mi-	4B-X\	-mi-	4g\	-mi-	4b-X\	-mi-
2A\	-nus	2c\	-nus	2f\	-nus	2a\	-nus
=21	=21	=21	=21	=21	=21	=21	=21
2B-X\	te-	2d\	te-	1f	te-	1.g	te-
2c\	.	1c	.	.	.	.	.
2C/	.	.	.	2e\	.	.	.
=22	=22	=22	=22	=22	=22	=22	=22
2F\	-cum,	2c\	-cum,	2f\	-cum	2a\	-cum,
2C/	al-	2e\	al-	2g\	al-	2g\	al-
2E\	-le-	2c\	-le-	2e\	-le-	2cc\	-le-
!	!	!LO:LB:g=original	!	!LO:LB:g=original	!	!	!
=23	=23	=23	=23	=23	=23	=23	=23
2F\	-lu-	2f\	-lu-	2c\	-lu-	2a\	-lu-
2D\	.	1A	-ia	1f	-ia	2dd\	.
2F\	-ia	.	.	.	.	2dd\	-ia
=24	=24	=24	=24	=24	=24	=24	=24
2G\	al-	1B	al-	2d\	al-	2b\	al-
!LO:LB:g=original	!	!	!	!	!	!	!
2E\	.	.	.	1g	.	1ee	.
2G\	-le-	2B\	-le-	.	.	.	.
=25	=25	=25	=25	=25	=25	=25	=25
2A\	-lu-	1c	-lu-	2e\	.	2cc\	-le-
2F\	.	.	.	1a	.	2ff\	.
2A\	-a	2c\	-ia	.	.	2ff\	-lu-
=26	=26	=26	=26	=26	=26	=26	=26
2B\	al-	1B	al-	2f\	-le-	2dd\	-ia
2G\	.	.	.	2g\	.	2dd\	Al-
2c\	.	2c\	.	2f\	-lu-	2ee\	-le-
=27	=27	=27	=27	=27	=27	=27	=27
2F\	-le-	1c	-le-	4a\	-ia	1.dd	-lu-
.	.	.	.	4a\	al-	.	.
2G\	.	.	.	2g\	-le-	.	.
2GG/	-lu-	2B\	-lu-	2g\	-lu-	.	.
=28	=28	=28	=28	=28	=28	=28	=28
1.C	-ia.	1.c	-ia.	1.g	-ia.	1.ee	-ia.
==	==	==	==	==	==	==	==
*-	*-	*-	*-	*-	*-	*-	*-
!!!system-decoration: [(s1,s2,s3,s4)]
!!!ENC: Filip Voros
!!!END: 2023-11-11
!!!ENC: Leszek Kubiak
!!!END: 2024-01-17
